src/assets/icons/svg/homeKid.svg

<?xml version="1.0" encoding="UTF-8"?>
<svg width="176px" height="129px" viewBox="0 0 176 129" version="1.1" xmlns="http://www.w3.org/2000/svg" xmlns:xlink="http://www.w3.org/1999/xlink">
    <!-- Generator: Sketch 61 (89581) - https://sketch.com -->
    <title>np-baby-850069-000000-copy-2</title>
    <desc>Created with Sketch.</desc>
    <g id="MVP" stroke="none" stroke-width="1" fill="none" fill-rule="evenodd">
        <g id="Etusivu-landing-01-Copy-5" transform="translate(-194.000000, -972.000000)" fill="#000000" fill-rule="nonzero">
            <g id="np-baby-850069-000000-copy-2" transform="translate(195.000000, 973.000000)">
                <path d="M28.0388811,96.113763 C29.6164209,96.113763 31.1575489,95.9458282 32.6677269,95.6953025 C43.6486055,114.408561 63.8871758,127 86.9986346,127 C110.110093,127 130.347753,114.408561 141.329542,95.6879611 C142.83972,95.9458282 144.379938,96.1055039 145.958388,96.1055039 C161.417914,96.113763 174,83.4452393 174,67.8805286 C174,52.3149003 161.417914,39.6472943 145.958388,39.6472943 C145.785432,39.6472943 145.618848,39.6702362 145.444982,39.6702362 C142.492799,32.3668176 138.218796,25.6807013 132.841049,19.9530395 C136.564152,16.5007406 139.795697,12.576756 142.363636,8.24348775 C142.997843,7.17499102 143.18391,5.89589162 142.880725,4.68881443 C142.57754,3.48173724 141.81006,2.44604334 140.747864,1.81057568 C139.686625,1.17191599 138.417141,0.984539801 137.218827,1.28968874 C136.020513,1.59483769 134.991585,2.36750139 134.358509,3.43761606 C132.138302,7.18632445 129.246297,10.5853981 125.892774,13.5660113 C115.169508,5.07933927 101.666205,0 86.9995449,0 C60.5900903,0 37.9337787,16.4328326 28.5550179,39.6775776 C28.382062,39.6702362 28.2154781,39.6546357 28.041612,39.6546357 C12.582086,39.6472943 0,52.3149003 0,67.8805286 C0,83.4452393 12.582086,96.113763 28.041612,96.113763 L28.0388811,96.113763 Z M162.652174,67.6344819 C162.652174,76.6652569 155.491142,84.0276549 146.576087,84.3507463 C148.943956,77.5572896 150.153106,70.4102121 150.152449,63.2114725 C150.152449,59.0957713 149.754562,55.0803399 149.01141,51.1791045 C156.762348,52.6181608 162.652174,59.4420733 162.652174,67.6344819 Z M87.3824448,12.3208955 C97.6939366,12.3094874 107.772107,15.3072858 116.315217,20.9271151 C109.376079,24.4148809 101.548364,26.4529771 93.697748,26.5350002 C84.4483114,26.6375291 73.5811166,23.3360985 70.2594906,15.7560922 C70.1834578,15.5786726 70.0762791,15.4164094 69.9782609,15.2541463 C75.5633391,13.3113808 81.4504461,12.3191436 87.3815288,12.3208955 L87.3824448,12.3208955 Z M60.8158071,18.9552239 C60.8458879,19.0469653 60.8613841,19.1451287 60.9069612,19.2368702 C66.1701959,31.6586633 81.0675022,36.0292262 92.4335005,36.0292262 C92.5930201,36.0292262 92.7516281,36.0292262 92.9029439,36.0209695 C103.626306,35.9072101 114.123606,32.7457995 123.061261,27.3247969 C132.325247,36.6980215 138.065217,49.5968702 138.065217,63.8204655 C138.065217,92.3887549 114.948551,115.626866 86.5276297,115.626866 C58.1076203,115.626866 34.9891304,92.3887549 34.9891304,63.8204655 C34.9891304,44.6648495 45.3952767,27.9183641 60.8158071,18.9552239 Z M24.9876667,51.1800331 C24.2341145,55.1438847 23.8520929,59.1701351 23.8466283,63.2058096 C23.8454373,70.4065879 25.0549209,77.555712 27.423913,84.3507463 C18.5088578,84.0350116 11.3478261,76.6635356 11.3478261,67.6298095 C11.3478261,59.4429952 17.2376524,52.6175545 24.9876667,51.1791045 L24.9876667,51.1800331 Z" id="Shape" stroke="#F9F9F9" stroke-width="2"></path>
                <path d="M87.0013732,88 C98.5310521,88 107.871795,77.7398882 107.871795,65.0909091 L66.1282051,65.0909091 C66.1282051,77.7489921 75.4707788,88 86.9995423,88 L87.0013732,88 Z M87.0004534,71.7727273 C91.7173946,71.7727273 95.5384615,76.0511856 95.5384615,81.3181818 L78.4615385,81.3181818 C78.4615385,76.0511856 82.2835122,71.7727273 87.0004534,71.7727273 Z M62.3333333,52.2075824 C62.3333333,60.4762604 50,60.4762604 50,52.2075824 C50,43.9308059 62.3333333,43.9308059 62.3333333,52.2075824 M124,52.2075824 C124,60.4762604 111.666667,60.4762604 111.666667,52.2075824 C111.666667,43.9308059 124,43.9308059 124,52.2075824" id="Shape"></path>
            </g>
        </g>
    </g>
</svg>

<?xml version="1.0" encoding="UTF-8"?><svg version="1.1" viewBox="0 0 176 129" xmlns="http://www.w3.org/2000/svg"><g fill="none" fill-rule="evenodd"><g transform="translate(-194 -972)" fill="#000" fill-rule="nonzero"><g transform="translate(195 973)"><path id="a" d="m28.039 96.114c1.5775 0 3.1187-0.16793 4.6288-0.41846 10.981 18.713 31.219 31.305 54.331 31.305 23.111 0 43.349-12.591 54.331-31.312 1.5102 0.25787 3.0504 0.41754 4.6288 0.41754 15.46 0.0082591 28.042-12.66 28.042-28.225 0-15.566-12.582-28.233-28.042-28.233-0.17296 0-0.33954 0.022942-0.51341 0.022942-2.9522-7.3034-7.2262-13.99-12.604-19.717 3.7231-3.4523 6.9546-7.3763 9.5226-11.71 0.63421-1.0685 0.82027-2.3476 0.51709-3.5547s-1.0707-2.2428-2.1329-2.8782c-1.0612-0.63866-2.3307-0.82604-3.529-0.52089-1.1983 0.30515-2.2272 1.0778-2.8603 2.1479-2.2202 3.7487-5.1122 7.1478-8.4657 10.128-10.723-8.4867-24.227-13.566-38.893-13.566-26.409 0-49.066 16.433-58.445 39.678-0.17296-0.0073414-0.33954-0.022942-0.51341-0.022942-15.46-0.0073414-28.042 12.66-28.042 28.226 0 15.565 12.582 28.233 28.042 28.233h-0.0027309zm134.61-28.479c0 9.0308-7.161 16.393-16.076 16.716 2.3679-6.7935 3.577-13.941 3.5764-21.139 0-4.1157-0.39789-8.1311-1.141-12.032 7.7509 1.4391 13.641 8.263 13.641 16.455zm-75.27-55.314c10.311-0.011408 20.39 2.9864 28.933 8.6062-6.9391 3.4878-14.767 5.5259-22.617 5.6079-9.2494 0.10253-20.117-3.1989-23.438-10.779-0.076033-0.17742-0.18321-0.33968-0.28123-0.50195 5.5851-1.9428 11.472-2.935 17.403-2.9333h9.16e-4zm-26.567 6.6343c0.030081 0.091741 0.045577 0.1899 0.091154 0.28165 5.2632 12.422 20.161 16.792 31.527 16.792 0.15952 0 0.31813 0 0.46944-0.0082567 10.723-0.11376 21.221-3.2752 30.158-8.6962 9.264 9.3732 15.004 22.272 15.004 36.496 0 28.568-23.117 51.806-51.538 51.806-28.42 0-51.538-23.238-51.538-51.806 0-19.156 10.406-35.902 25.827-44.865zm-35.828 32.225c-0.75355 3.9639-1.1356 7.9901-1.141 12.026-0.001191 7.2008 1.2083 14.35 3.5773 21.145-8.9151-0.31573-16.076-7.6872-16.076-16.721 0-8.1868 5.8898-15.012 13.64-16.451v9.286e-4z" stroke="#F9F9F9" stroke-width="2"/><path d="m87.001 88c11.53 0 20.87-10.26 20.87-22.909h-41.744c0 12.658 9.3426 22.909 20.871 22.909h0.0018309zm-9.198e-4 -16.227c4.7169 0 8.538 4.2785 8.538 9.5455h-17.077c0-5.267 3.822-9.5455 8.5389-9.5455zm-24.667-19.565c0 8.2687-12.333 8.2687-12.333 0 0-8.2768 12.333-8.2768 12.333 0m61.667 0c0 8.2687-12.333 8.2687-12.333 0 0-8.2768 12.333-8.2768 12.333 0"/></g></g></g></svg>
